!!!COM: Fux, Johann Joseph
!!!OMD: Gradus ad Parnassum Exercise
!!!YEC: CC0 1.0 Universal (Public Domain). Mark Gotham and FourScoreAndMore.org waive all rights to this document.
**kern	**kern	**kern	**kern
*part4	*part3	*part2	*part1
*staff4	*staff3	*staff2	*staff1
*I"4	*I"3	*I"2	*I"1
*I'Pno	*I'Pno	*I'Pno	*I'Pno
!!LO:LB:g=z
*clefF4	*clefGv2	*clefG2	*clefG2
*k[]	*k[]	*k[]	*k[]
!!LO:TX:omd:t=
*M4/4	*M4/4	*M4/4	*M4/4
=211	=211	=211	=211
!	!	!	!LO:TX:a:t=Fig. 183; Species&colon; 3; Modal final&colon; e; Cantus firmus&colon; 2
1E	1G#X	1e	4b\
.	.	.	4e/
.	.	.	4b\
.	.	.	4cc\
=212	=212	=212	=212
1F	1A	1c	4a/
.	.	.	4cc\
.	.	.	4a/
.	.	.	4g/
=213	=213	=213	=213
1D	1A	1d	4f/
.	.	.	4d/
.	.	.	4e/
.	.	.	4f/
=214	=214	=214	=214
1E	1G	1c	4g/
.	.	.	4e/
.	.	.	4f/
.	.	.	4g/
=215	=215	=215	=215
1F	1c	1A	4a/
.	.	.	4f/
.	.	.	4a/
.	.	.	4b\
!!LO:PB:g=z
=216	=216	=216	=216
1F	1A	1a	4cc\
.	.	.	4a/
.	.	.	4cc\
.	.	.	4dd\
=217	=217	=217	=217
1E	1B	1g	4ee\
.	.	.	4b\
.	.	.	4ee\
.	.	.	4dd\
=218	=218	=218	=218
1A	1c	1e	4cc\
.	.	.	4ee\
.	.	.	4cc\
.	.	.	4b\
=219	=219	=219	=219
1D	1d	1f	4a/
.	.	.	4dd\
.	.	.	4a/
.	.	.	4b\
=220	=220	=220	=220
1E	1B	1e	1g#X
==	==	==	==
*-	*-	*-	*-
!!!software: music21 v.9.7.1
!!!software: music21 v.9.7.1
!!!software: MuseScore 3.4.2
!!!RDF**kern: > = above
!!!RDF**kern: < = below
